tools/download-figma-icons/icons/solid/shopping-basket.svg

<svg width="24" height="24" viewBox="0 0 24 24" fill="none" xmlns="http://www.w3.org/2000/svg">
<path d="M24 11.0699C24 9.53525 22.7723 8.29258 21.2601 8.29258H17.9064L15.0917 4.54211C14.3581 3.56145 13.2277 3 12.0075 3C10.7873 3 9.65689 3.56145 8.92327 4.54211L6.10855 8.29258H2.73986C1.23518 8.28509 0 9.53525 0 11.0699C0 12.4173 0.950718 13.5402 2.20087 13.7948L4.04991 19.9482C4.34186 20.9214 5.26263 21.6101 6.28072 21.6101H17.7193C18.7374 21.6101 19.6581 20.9289 19.9501 19.9557L21.7991 13.8022C23.0493 13.5402 23.9925 12.4173 23.9925 11.0774L24 11.0699ZM10.1135 5.43294C10.5627 4.83406 11.2514 4.48971 12.0075 4.48971C12.7636 4.48971 13.4448 4.83406 13.9014 5.43294L16.0424 8.28509H7.98752L10.1285 5.43294H10.1135ZM21.2527 12.35H2.73986C2.05115 12.35 1.49719 11.7736 1.49719 11.0699C1.49719 10.3662 2.05864 9.78977 2.73986 9.78977H21.2527C21.9414 9.78977 22.4953 10.3662 22.4953 11.0699C22.4953 11.7736 21.9339 12.35 21.2527 12.35Z" fill="black"/>
</svg>

<svg width="24" height="24" viewBox="0 0 24 24" fill="none" xmlns="http://www.w3.org/2000/svg"><path d="M24 11.07c0-1.535-1.228-2.777-2.74-2.777h-3.354l-2.814-3.75A3.826 3.826 0 0 0 12.007 3c-1.22 0-2.35.561-3.084 1.542L6.11 8.292H2.74C1.236 8.286 0 9.536 0 11.07c0 1.347.95 2.47 2.2 2.725l1.85 6.153a2.352 2.352 0 0 0 2.23 1.662h11.44a2.345 2.345 0 0 0 2.23-1.654l1.85-6.154a2.781 2.781 0 0 0 2.192-2.725L24 11.07ZM10.114 5.433a2.344 2.344 0 0 1 1.893-.943c.757 0 1.438.344 1.894.943l2.141 2.852H7.988l2.14-2.852h-.014Zm11.139 6.917H2.74c-.689 0-1.243-.576-1.243-1.28 0-.704.562-1.28 1.243-1.28h18.513c.688 0 1.242.576 1.242 1.28 0 .704-.561 1.28-1.242 1.28Z" fill="currentColor"/></svg>
